!!!!SEGMENT: pl-kk--kk-i-3--016-002_anonim--de-eclecta-benedictus.krn
!!!cenid: 15xx:622
!!!COM: Anonim
!!!COM-rismid: pe30004985
!!!CDT:
!!!CNT:
!!!OPR: De eclecta
!!!OTL: Benedictus
!!!OMV: 002
!!!PDT:
!!!AGN:
!!!SMS-siglum: PL-Kk
!!!SMS-shelfmark: Kk.I.3
!!!SMS-shelfwork: 016-002 M
!!!SMS-variant:
!!!SMS-altvar:
!!!NIFC-rismid: 1001145493
!!!system-decoration: [(s1,s2,s3)]
!!!key:
**kern	**text	**kern	**text	**kern	**text
*part3	*part3	*part2	*part2	*part1	*part1
*staff3	*staff3	*staff2	*staff2	*staff1	*staff1
*Ibass	*	*Itenor	*	*Iempty	*
*I"Bassus	*	*I"Tenor	*	*I"Discantus	*
*I'B	*	*I'T	*	*I'S	*
*clefF4	*	*clefC4	*	*clefC3	*
*k[]	*	*k[]	*	*k[]	*
*C:	*	*C:	*	*C:	*
*M2/1	*	*M2/1	*	*M2/1	*
=1-	=1-	=1-	=1-	=1-	=1-
*2\right	*	*2\right	*	*2\right	*
1D	Be-	1d	Be-	1F	Be-
!	!	!LO:SIC:v:t=custos c	!	!	!
1GG	-ne-	1B	-ne-	1G	-be-
!	!	!LO:LB:g=original	!	!	!
=2-	=2-	=2-	=2-	=2-	=2-
1AA	.	1c	-di-	1E	-di-
!	!	!LO:TX:t=P:global:problem=kreska oddechu na różnych liniach [rozdzielacz słów / znak oddechu]	!	!	!
!	!	!	!	!LO:SIC:v:t=custos E	!
1FF	.	1A,<	-ctvs	1F	-ctvs
!	!	!	!	!LO:LB:g=original	!
=3-	=3-	=3-	=3-	=3-	=3-
*lig	*	*lig	*	*	*
1C	-di-	1c	qui	1E	.
1FF	.	1A	.	1F	qui
*Xlig	*	*Xlig	*	*	*
=4-	=4-	=4-	=4-	=4-	=4-
*lig	*	*lig	*	*	*
1F	.	1F	.	1A	ve-
1C	.	1E	.	1G	.
*Xlig	*	*Xlig	*	*	*
=5-	=5-	=5-	=5-	=5-	=5-
*lig	*	*lig	*	*	*
1FF	.	1F	ve-	1A	.
!LO:SIC:v:t=custos AA	!	!	!	!	!
1GG	.	1D	-nit	1B	-nit
*Xlig	*	*Xlig	*	*	*
!LO:LB:g=original	!	!	!	!	!
=6-	=6-	=6-	=6-	=6-	=6-
*lig	*	*	*	*	*
1AA	.	1A	.	1c	in
1D	.	1F	.	1d	no-
*Xlig	*	*	*	*	*
=7-	=7-	=7-	=7-	=7-	=7-
0BB	.	1D	.	1f	-mi-
.	.	1F,<	.	1d	-ne
=8-	=8-	=8-	=8-	=8-	=8-
*lig	*	*lig	*	*	*
1C	.	1E	.	1c	do-
*	*	*	*	*lig	*
1BB	.	1F	.	1d	.
*Xlig	*	*Xlig	*	*	*
=9-	=9-	=9-	=9-	=9-	=9-
*lig	*	*	*	*	*
1GG	-ctus	1G	.	1B	.
*	*	*lig	*	*Xlig	*
!	!	!	!	!LO:SIC:v:t=custos d	!
1D	.	1F	.	2A/	.
!	!	!	!	!LO:LB:g=original	!
.	.	.	.	1d\	-mi-
*Xlig	*	*	*	*	*
=10-	=10-	=10-	=10-	=10-	=10-
*lig	*	*	*	*	*
1AA	.	1E	.	.	.
!	!	!	!	!LO:TX:a:t=P:problem=w źródle łuk między nutami 2c i 1d lub łuczek nad nutą 1d	!
.	.	.	.	(>2c/	-ni
*	*	*Xlig	*	*	*
!	!	!LO:SIC:v:t=custos G	!	!	!
1D	.	1D,<	.	1d)	.
*Xlig	*	*	*	*	*
!	!	!LO:LB:g=original	!	!	!
=11-	=11-	=11-	=11-	=11-	=11-
*	*	*lig	*	*lig	*
1C	qvi	1G	.	1e	.
*lig	*	*	*	*	*
1F	.	1A	.	1c	.
*	*	*Xlig	*	*Xlig	*
=12-	=12-	=12-	=12-	=12-	=12-
1D	.	1F	.	1d	.
*Xlig	*	*	*	*	*
*lig	*	*	*	*lig	*
1D	.	1A	.	1f	.
=13-	=13-	=13-	=13-	=13-	=13-
1C	.	1c	.	1e	.
*Xlig	*	*	*	*Xlig	*
*lig	*	*	*	*	*
1G	.	1B	.	2d/	.
.	.	.	.	2e\	.
=14-	=14-	=14-	=14-	=14-	=14-
1F	.	1A	.	1f	.
*Xlig	*	*	*	*	*
*lig	*	*lig	*	*	*
1G	.	1B	.	1d	.
=15-	=15-	=15-	=15-	=15-	=15-
1E	.	1c	.	1e	.
*Xlig	*	*Xlig	*	*	*
1D	.	1d,<	.	1A	.
=16-	=16-	=16-	=16-	=16-	=16-
!	!	!	!	!LO:SIC:v:t=custos G	!
1D	.	1d	in	1F	.
!LO:LB:g=original	!	!	!	!LO:PB:g=original	!
1GG	.	1B	no-	1G	.
=17-	=17-	=17-	=17-	=17-	=17-
*lig	*	*	*	*	*
1AA	.	1c	-mi-	1E	.
1FF	.	1A	-ne	1F	.
*Xlig	*	*	*	*	*
=18-	=18-	=18-	=18-	=18-	=18-
*lig	*	*	*	*	*
!	!	!LO:SIC:v:t=custos A	!	!	!
*	*	*	*	*lig	*
1C	.	1c	do-	1E	.
!	!	!LO:LB:g=original	!	!	!
1FF	.	1A	.	1F	.
*Xlig	*	*	*	*Xlig	*
=19-	=19-	=19-	=19-	=19-	=19-
*lig	*	*lig	*	*lig	*
1F	.	1F	.	1A	.
1C	.	1E	.	1G	.
*Xlig	*	*Xlig	*	*Xlig	*
=20-	=20-	=20-	=20-	=20-	=20-
*lig	*	*lig	*	*	*
1FF	.	1F	.	1A	.
1GG	.	1D	.	1B	.
*Xlig	*	*Xlig	*	*	*
=21-	=21-	=21-	=21-	=21-	=21-
*lig	*	*lig	*	*	*
1AA	.	1A	.	1c	.
1D	.	1F	.	1d	.
*Xlig	*	*Xlig	*	*	*
=22-	=22-	=22-	=22-	=22-	=22-
*	*	*lig	*	*lig	*
0BB	.	1D	.	1f	.
.	.	1F	.	1d	.
*	*	*Xlig	*	*Xlig	*
=23-	=23-	=23-	=23-	=23-	=23-
*lig	*	*lig	*	*	*
1C	.	1E	-mi-	1c	.
*	*	*	*	*lig	*
1BB	.	1F	.	1d	.
*Xlig	*	*Xlig	*	*	*
=24-	=24-	=24-	=24-	=24-	=24-
!	!	!	!	!LO:SIC:v:t=custos A	!
1GG	.	1G	.	1B	.
*lig	*	*lig	*	*Xlig	*
!	!	!	!	!LO:LB:g=original	!
1D	.	1F	-ni	2A/	.
.	.	.	.	1d\	.
=25-	=25-	=25-	=25-	=25-	=25-
1AA	.	1E	.	.	.
.	.	.	.	2c/	.
*Xlig	*	*Xlig	*	*	*
!LO:TX:a:t=P:problem=w źródle po ostatnie brevis długi znak custos	!	!LO:TX:a:t=P:problem=w źródle po ostatnie brevis długi znak custos	!	!	!
!	!	!	!	!LO:TX:a:t=P:problem=w źródle po ostatnie brevis długi znak custos	!
!LO:SIC:v:t=custos C	!	!LO:SIC:v:t=custos G	!	!LO:SIC:v:t=custos e	!
!LO:N:vis=0	!	!LO:N:vis=0	!	!LO:N:vis=0	!
1D;	.	1D;>	.	1d;>	.
==	==	==	==	==	==
*-	*-	*-	*-	*-	*-
!!title: @{OTL};
!!!RDF**kern: > = above
!!!RDF**kern: < = below
!!!RDF**kern: | = vertical stroke
!!!RDF**kern: N = linked
!!!RDF**kern: i = editorial accidental
!!!RDF**kern: l = terminal long
!!!AIN: 1 bass 1 empty 1 tenor
!!!ENC: Filip Voros
!!!END: 2022-01-02
!!!EED: Wojciech Jakubiak-Danek
!!!EST: 2022-01-04
!!!URL-scan: http://repozytorium.nifc.pl/skany/pl-kk-nut--i-3
!!!ONB-nifc: UWAGA: Discantus (s. 72r-v, skan 0074-0075), Tenor (s. 50r, skan 0222), Bassus (s. ,skan 0371)
